assets/namebase/original.svg

<svg viewBox="0 0 24 24" xmlns="http://www.w3.org/2000/svg" fill="#0068FF"><path d="m23.0978 2.406c0 1.3288-1.0516 2.406-2.3488 2.406s-2.3487-1.0772-2.3487-2.406 1.0516-2.406 2.3488-2.406 2.3487 1.0772 2.3487 2.406zm-11.5089.5415c-5.9021-0-10.6867 4.9013-10.6867 10.9473v10.1052h6.5764v-10.1052c0-2.3254 1.8403-4.2105 4.1103-4.2105s4.1103 1.8851 4.1103 4.2105v10.1052h6.5764v-10.1052c0-6.046-4.7846-10.9473-10.6867-10.9473z"/></svg>

<svg xmlns="http://www.w3.org/2000/svg" fill="#0068ff" viewBox="0 0 24 24"><path d="M23.098 2.406c0 1.329-1.052 2.406-2.349 2.406S18.4 3.735 18.4 2.406 19.452 0 20.75 0s2.348 1.077 2.348 2.406m-11.51.542C5.688 2.948.903 7.848.903 13.894V24H7.48V13.895c0-2.326 1.84-4.21 4.11-4.21s4.11 1.884 4.11 4.21V24h6.577V13.895c0-6.046-4.785-10.947-10.687-10.947"/></svg>
